image/breadcrumbs-arrow.svg

<svg fill="none" height="16" viewBox="0 0 16 16" width="16" xmlns="http://www.w3.org/2000/svg"><path clip-rule="evenodd" d="m1 8c0-.27614.22386-.5.5-.5h11.7929l-3.1465-3.14645c-.19522-.19526-.19522-.51184 0-.7071.1953-.19527.5119-.19527.7072 0l4 4c.1952.19526.1952.51184 0 .7071l-4 4.00005c-.1953.1952-.5119.1952-.7072 0-.19522-.1953-.19522-.5119 0-.7072l3.1465-3.1464h-11.7929c-.27614 0-.5-.22386-.5-.5z" fill="#1e1e1e" fill-rule="evenodd"/></svg>

<svg width="16" height="16" viewBox="0 0 16 16" fill="none" xmlns="http://www.w3.org/2000/svg">
<path fill-rule="evenodd" clip-rule="evenodd" d="M1 8C1 7.72386 1.22386 7.5 1.5 7.5H13.2929L10.1464 4.35355C9.95118 4.15829 9.95118 3.84171 10.1464 3.64645C10.3417 3.45118 10.6583 3.45118 10.8536 3.64645L14.8536 7.64645C15.0488 7.84171 15.0488 8.15829 14.8536 8.35355L10.8536 12.3536C10.6583 12.5488 10.3417 12.5488 10.1464 12.3536C9.95118 12.1583 9.95118 11.8417 10.1464 11.6464L13.2929 8.5H1.5C1.22386 8.5 1 8.27614 1 8Z" fill="#1E1E1E"/>
</svg>
